X:3
T:GB/7c/3A, Botany Bay Version 2 of 2 
%%VWML:GB-7c-3A-0
F:http://www.vwml.org/record/GB/7c/3A
P:F.W. J(ekyll) & G.S.K. B(utterworth)
C:Transcribed by Simon Furey and Lewis Jones
L:1/4
Q:1/4=100
M:4/4
I:linebreak $
K:Dmix
A/B/ | c c A/B/ c | d d D F/G/ | A A G/F/ E |$ D3 :| A | d3/2 e/ =f d | e e !fermata!A A | d3/2 e/ =f e |$ d3 d | c d B/A/ G | d d D F/G/ | A A G/F/ E | D3 |]

